X: 203
T: Warkworth Castle
B: 204 Favourite Country Dances
N: Published by Straight & Skillern, London ca.1775
F: http://imslp.org/wiki/204_Favourite_Country_Dances_(Various) p.102 #203
Z: 2014 John Chambers <jc:trillian.mit.edu>
M: 6/8
L: 1/8
K: D
%  - - - - - - - - - - - - - - - - - - - - - - - - -
A |\
D>ED F2G | A2d AFD | G2d F2d | [eE][fF][dD] [cC][BB,][AA,] |\
D>ED F2G | A2d AFD | FdF Edc | d3 D2 :|
|: A |\
d>ed f2g | aga fed | BcB c2d | efd cBA |\
d>ed f2g | a2g fed | (B/c/dB) (c/d/ec) | d3 D2 :|
%  - - - - - - - - - - - - - - - - - - - - - - - - -
%%begintext align
%% The first Cu. Foot it and half right and Left .|
%% the same back again .|. lead down two Cu. & cast
%% up one .|: hands 6 round :|:
%%endtext

%%sep 1 1 500
%%sep 1 1 500
